X: 10
M:4/4
L:1/8
K:G
dedB cBAG|F2 ED EAGE|D2 DE GBAB|G2 GA G2:|
|:BA|GEDE GABc|d2 dd d2 cd|edcB cBAB|cBAB c2 B2|
dedB cBAG|F2 ED EAGE|D2 DE GBAB|G2 GA G2:||

